!!!CDT:
!!!PTL: L'Armida del Tasso posta in musica a cinque voci, col suo basso per suonare
!!!PPP: Venice
!!!PPR: Alessandro Vincenti
!!!PDT: 1629
!!!PUB-format:
!!!RISM: E 741
!!!AGN: Madrigal
!!!SCT: Tsg20124a
!!!SCA: Tsg20124a
!!!original-voices: 5+bc
!!!extant-voices: 5+bc
!!!complete: Y
!!!final: (G)G
!!!COM: Eredi, Francesco
!!!OTL: Ah, ma non fia che fra tant'armi e tante
**kern	**fb	**kern	**text	**kern	**text	**kern	**text	**kern	**text	**kern	**text
*part6	*part6	*part5	*part5	*part4	*part4	*part3	*part3	*part2	*part2	*part1	*part1
*staff6	*staff6	*staff5	*staff5	*staff4	*staff4	*staff3	*staff3	*staff2	*staff2	*staff1	*staff1
*I"Basso continuo	*	*I"Basso	*	*I"Tenore	*	*I"Quinto	*	*I"Alto	*	*I"Canto	*
*I'Bc	*	*I'B	*	*I'T	*	*I'V	*	*I'A	*	*I'C	*
*oclefF4	*	*oclefF4	*	*oclefC4	*	*oclefC4	*	*oclefC3	*	*oclefC1	*
*clefF4	*	*clefF4	*	*clefGv2	*	*clefGv2	*	*clefGv2	*	*clefG2	*
*k[]	*	*k[]	*	*k[]	*	*k[]	*	*k[]	*	*k[]	*
*C:	*	*C:	*	*C:	*	*C:	*	*C:	*	*C:	*
*omet(C)	*	*omet(C)	*	*omet(C)	*	*omet(C)	*	*omet(C)	*	*omet(C)	*
*M4/4	*	*M4/4	*	*M4/4	*	*M4/4	*	*M4/4	*	*M4/4	*
=1	=1	=1	=1	=1	=1	=1	=1	=1	=1	=1	=1
!!LO:TX:a:t=Seconda parte
2G	.	1r	.	1r	.	4r	.	4r	.	2r	.
.	.	.	.	.	.	4G	Ah,	4d	Ah,	.	.
[2C	.	.	.	.	.	[2c	Ah,	[2e	Ah,	4r	.
.	.	.	.	.	.	.	.	.	.	4g	Ah,
=2	=2	=2	=2	=2	=2	=2	=2	=2	=2	=2	=2
4C]	.	1r	.	1r	.	4c]	.	4e]	.	4cc	Ah,
2D	.	.	.	.	.	2d	ma	2f	ma	2a	ma
4BB-X	6	.	.	.	.	4B-X	non	4d	non	4g	non
=3	=3	=3	=3	=3	=3	=3	=3	=3	=3	=3	=3
4AA	.	4r	.	4r	.	4A	fia	4e	fia	4a	fia
4A	#	4A	che	4A	che	4c#X	che	4e	che	4a	che
8DL	.	8D	fra	8A	fra	8d	fra	8f	fra	8a	fra
8DJ	.	8D	tan-	8A	tan-	8d	tan-	8f	tan-	8a	tan-
8DL	.	8D	-t’ ar-	8A	-t’ ar-	8d	-t’ ar-	8f	-t’ ar-	8f	-t’ ar-
8CJ	.	8C	-me e	8c	-me e	8e	-me e	8e	-me e	8g	-me e
=4	=4	=4	=4	=4	=4	=4	=4	=4	=4	=4	=4
4F	.	4F	tan-	4A	tan-	4c	tan-	4f	tan-	4a	tan-
4F	.	4F	-te,	4A	-te,	4c	-te	4f	-te	4a	-te
2E	6	2r	.	2r	.	2r	.	2r	.	4r	.
.	.	.	.	.	.	.	.	.	.	4cc	U-
=5	=5	=5	=5	=5	=5	=5	=5	=5	=5	=5	=5
2G	.	1r	.	1r	.	1r	.	1r	.	4.cc	-na
.	.	.	.	.	.	.	.	.	.	8b	di
2C	.	.	.	.	.	.	.	.	.	4cc	san-
.	.	.	.	.	.	.	.	.	.	4cc	-gue
=6	=6	=6	=6	=6	=6	=6	=6	=6	=6	=6	=6
2FF	.	1r	.	2F	che	1r	.	2r	.	4r	.
.	.	.	.	.	.	.	.	.	.	4cc	hog-
4AA	.	.	.	4A	fra	.	.	4r	.	8a	-gi
.	.	.	.	.	.	.	.	.	.	8cc	si
4BB-X	.	.	.	4B-X	tan-	.	.	4f	U-	8b-X	ba-
.	.	.	.	.	.	.	.	.	.	8a	-gni al-
=7	=7	=7	=7	=7	=7	=7	=7	=7	=7	=7	=7
4C	.	1r	.	4c	-t’ ar-	1r	.	4.f	-na	2g	-me-
4C	.	.	.	4c	-me e	.	.	.	.	.	.
.	.	.	.	.	.	.	.	8e	di	.	.
2D	.	.	.	2d	tan-	.	.	4f	san-	2f	-no,
.	.	.	.	.	.	.	.	4f	-gue	.	.
=8	=8	=8	=8	=8	=8	=8	=8	=8	=8	=8	=8
2C	.	2C	<che	1c	-te	2r	.	4r	.	1r	.
.	.	.	.	.	.	.	.	4g	hog-	.	.
4E	6	4E	fra	.	.	4r	.	8e	-gi	.	.
.	.	.	.	.	.	.	.	8g	si	.	.
4F	.	4F	tan-	.	.	4c	U-	8f	ba-	.	.
.	.	.	.	.	.	.	.	8e	-gni al-	.	.
=9	=9	=9	=9	=9	=9	=9	=9	=9	=9	=9	=9
4G	.	4G	-t’ ar-	2r	.	4.c	-na	2d	-me-	4r	.
4G	.	4G	-me e	.	.	.	.	.	.	4g	che
.	.	.	.	.	.	8B	di	.	.	.	.
2A	.	2A	tan-	4r	.	4c	san-	2c	-no,	4e	fra
.	.	.	.	4c	U-	4c	-gue	.	.	4f	tan-
=10	=10	=10	=10	=10	=10	=10	=10	=10	=10	=10	=10
2G	.	2G	-te>	4.c	-na	4r	.	4r	.	2.g	-t’ar-
.	.	.	.	.	.	4d	hog-	4G	che	.	.
.	.	.	.	8B	di	.	.	.	.	.	.
4G	.	4r	.	4G	san-	8B	-gi	4B	fra	.	.
.	.	.	.	.	.	8d	si	.	.	.	.
4C	.	4G	U-	4G	-gue	8c	ba-	4e	tan-	4e	-me e
.	.	.	.	.	.	8B	-gni al-	.	.	.	.
=11	=11	=11	=11	=11	=11	=11	=11	=11	=11	=11	=11
2D	#	4.G	-na	4r	.	2A	-me-	4.d	-t’ ar-	2a	tan-
.	.	.	.	4d	hog-	.	.	.	.	.	.
.	.	8F#X	di	.	.	.	.	8A	-me e	.	.
2G	.	4G	san-	4B	-gi	2G	-no,	4B	tan-	2d	-te
.	.	4G	-gue	4d	si	.	.	4B	-te	.	.
=12	=12	=12	=12	=12	=12	=12	=12	=12	=12	=12	=12
4G	.	4r	.	2.G	ba-	2B	che	1r	.	2r	.
4G	.	4G	hog-	.	.	.	.	.	.	.	.
8EL	.	8E	-gi	.	.	4B	fra	.	.	4r	.
8GJ	.	8G	si	.	.	.	.	.	.	.	.
8FL	.	8F	ba-	4A	-gni al-	4c	tan-	.	.	4cc	U-
8EJ	.	8E	-gni al-	.	.	.	.	.	.	.	.
=13	=13	=13	=13	=13	=13	=13	=13	=13	=13	=13	=13
2D	7:6	2D	-me-	2F	-me-	4d	-t’ ar-	4r	.	4.cc	-na
.	.	.	.	.	.	4d	-me e	4f	U-	.	.
.	.	.	.	.	.	.	.	.	.	8b	di
2C	.	2C	-no,	2G	-no,	2e	tan-	4.e	-na	4cc	san-
.	.	.	.	.	.	.	.	.	.	4cc	-gue
.	.	.	.	.	.	.	.	8e	di	.	.
=14	=14	=14	=14	=14	=14	=14	=14	=14	=14	=14	=14
2D	.	4r	.	1r	.	2d	-te	4f	san-	4r	.
.	.	4D	che	.	.	.	.	4f	-gue	4a	hog-
4F	.	4F	fra	.	.	4r	.	2r	.	8f	-gi
.	.	.	.	.	.	.	.	.	.	8a	si
4G	.	4G	tan-	.	.	4d	U-	.	.	8g	ba-
.	.	.	.	.	.	.	.	.	.	8f	-gni al-
=15	=15	=15	=15	=15	=15	=15	=15	=15	=15	=15	=15
4A	.	4A	-t’ar-	2r	.	4.d	-na	4r	.	2e	-me-
4AA	.	4AA	-me e	.	.	.	.	4a	hog-	.	.
.	.	.	.	.	.	8c#X	di	.	.	.	.
2D	.	2D	tan-	4r	.	4d	san-	8f	-gi	2d	-no
.	.	.	.	.	.	.	.	8a	si	.	.
.	.	.	.	4d	U-	4d	-gue	8g	ba-	.	.
.	.	.	.	.	.	.	.	8f	-gni al-	.	.
=16	=16	=16	=16	=16	=16	=16	=16	=16	=16	=16	=16
2AA	#	2AA	-te	4.d	-na	4r	.	2e	-me-	1r	.
.	.	.	.	.	.	4A	hog-	.	.	.	.
.	.	.	.	8c#X	di	.	.	.	.	.	.
4D	.	4r	.	4d	san-	8F	-gi	2d	-no,	.	.
.	.	.	.	.	.	8A	si	.	.	.	.
4GG	.	4GG	hog-	4d	-gue	8G	ba-	.	.	.	.
.	.	.	.	.	.	8F	-gni al-	.	.	.	.
=17	=17	=17	=17	=17	=17	=17	=17	=17	=17	=17	=17
2C	.	4.C	-gi	4r	.	4E	-me-	4r	.	1r	.
.	.	.	.	4e	hog-	4E	-no	4g	<hog-	.	.
.	.	8D	si	.	.	.	.	.	.	.	.
4E	.	4E	ba-	8c	-gi	2r	.	8e	-gi	.	.
.	.	.	.	8e	si	.	.	8g	si	.	.
4F	.	4F	-gni al-	8d	ba-	.	.	8f	ba-	.	.
.	.	.	.	8c	-gni al-	.	.	8e	-gni al-	.	.
=18	=18	=18	=18	=18	=18	=18	=18	=18	=18	=18	=18
2G	.	2G	-me-	4c	-me-	1r	.	2d	-me-	1r	.
.	.	.	.	4B	.	.	.	.	.	.	.
2C	.	2C	-no	2c	-no	.	.	2c	-no>	.	.
=19	=19	=19	=19	=19	=19	=19	=19	=19	=19	=19	=19
2F	.	2r	.	2r	.	8r	.	2r	.	2r	.
.	.	.	.	.	.	8c	S’o-	.	.	.	.
.	.	.	.	.	.	8c	-gn’al-	.	.	.	.
.	.	.	.	.	.	8c	-tro	.	.	.	.
4F	.	8r	.	8r	.	8c	pet-	8r	.	8r	.
.	.	8F	S’o-	8A	S’o-	8c	-to a	8f	S’o-	8a	S’o-
8FL	.	8F	-gn’ al-	8A	-gn’al-	[4c	voi	8f	-gn’al-	8a	-gn’al-
8FJ	.	8F	-tro	8A	-tro	.	.	8f	-tro	8a	-tro
=20	=20	=20	=20	=20	=20	=20	=20	=20	=20	=20	=20
8FL	.	8F	pet-	8A	pet-	8c]L	.	8f	pet-	8a	pet-
8FJ	.	8F	-to a	8A	-to a	8BJ	.	8f	-to a	8a	-to a
2F	.	2F	voi	4A	voi	2A	.	2f	voi	2a	voi
.	.	.	.	2c	par	.	.	.	.	.	.
[4A	.	[4A	par	.	.	[4c	par	[4e	par	[4a	par
=21	=21	=21	=21	=21	=21	=21	=21	=21	=21	=21	=21
4A]	.	4A]	.	4.A	di	4c]	.	4e]	.	4a]	.
8DL	.	8D	di	.	.	8d	di	8f	di	8a	di
8AAJ	.	8AA	Dia-	8A	Dia-	8c	Dia-	8e	Dia-	8a	Dia-
2E	#	4E	-man-	4G#i	-man-	4B	-man-	4e	-man-	4b	-man-
.	.	4E	-te	4G#X	-te	4B	-te	4e	-te	4b	-te
=22	=22	=22	=22	=22	=22	=22	=22	=22	=22	=22	=22
2C	.	1r	.	4r	.	1r	.	4r	.	1r	.
.	.	.	.	8c	O-	.	.	8e	O-	.	.
.	.	.	.	8c	-sa-	.	.	8e	-sa-	.	.
2G	.	.	.	4c	-re-	.	.	4e	-re-	.	.
.	.	.	.	8B	-te	.	.	8d	-te	.	.
.	.	.	.	8B	pia-	.	.	8d	pia-	.	.
=23	=23	=23	=23	=23	=23	=23	=23	=23	=23	=23	=23
4.c	.	1r	.	4c	-gar	2r	.	2e	-gar	4r	.
.	.	.	.	8c	fe-	.	.	.	.	8g	O-
8B	.	.	.	8B	-mi-	.	.	.	.	8g	-sa-
2A	7:6	.	.	2A	-nil	4r	.	2r	.	4g	-re-
.	.	.	.	.	.	8c	O-	.	.	8f#X	-te
.	.	.	.	.	.	8c	-sa-	.	.	8f#i	pia-
=24	=24	=24	=24	=24	=24	=24	=24	=24	=24	=24	=24
2G	.	2r	.	2G	se-	4c	-re-	4r	.	2g	-gar,
.	.	.	.	.	.	8B	-te	8g	fe-	.	.
.	.	.	.	.	.	8B	pia-	8f	-mi-	.	.
2C	.	4r	.	2C	-no,	4c	-gar	2e	-nil	2r	.
.	.	8G	O-	.	.	8c	fe-	.	.	.	.
.	.	8G	-sa-	.	.	8B	-mi-	.	.	.	.
=25	=25	=25	=25	=25	=25	=25	=25	=25	=25	=25	=25
2AA	7:6	4G	-re-	1r	.	2A	-nil	4c	se-	4r	.
.	.	8F#i	-te	.	.	.	.	4A	.	8cc	<O
.	.	8F#X	pia-	.	.	.	.	.	.	8cc	sa-
2GG	.	2G	-gar	.	.	2G	se-	2d	-no,	4cc	-re-
.	.	.	.	.	.	.	.	.	.	8b	-te
.	.	.	.	.	.	.	.	.	.	8b	pia-
=26	=26	=26	=26	=26	=26	=26	=26	=26	=26	=26	=26
4C	.	4r	.	8G	fe-	4C	-no,	2r	.	4cc	-gar>
.	.	.	.	8A	-mi-	.	.	.	.	.	.
4G	.	8G	fe-	2B	-nil,	8G	fe-	.	.	8b	fe-
.	.	8F	-mi-	.	.	8A	-mi-	.	.	8a	-mi-
2E	.	2E	-nil	.	.	2B	-nil	8g	<fe-	2g	-nil,
.	.	.	.	.	.	.	.	8f	-mi-	.	.
.	.	.	.	8G	<fe-	.	.	4e	-nil	.	.
.	.	.	.	8G	-mi-	.	.	.	.	.	.
=27	=27	=27	=27	=27	=27	=27	=27	=27	=27	=27	=27
1D	#	1D	se-	4A	-nil>	2r	.	4f#X	se-	8dd	fe-
.	.	.	.	.	.	.	.	.	.	8cc	-mi-
.	.	.	.	(>8BL	se-	.	.	2g	.	4b	-nil
.	.	.	.	8G)J	.	.	.	.	.	.	.
.	.	.	.	2A	.	2d	se-	.	.	2a	se-
.	.	.	.	.	.	.	.	4f#X	.	.	.
=28	=28	=28	=28	=28	=28	=28	=28	=28	=28	=28	=28
1GG	.	1GG	-no	1G	-no	1d	-no	1g	-no>	1b	-no
=29	=29	=29	=29	=29	=29	=29	=29	=29	=29	=29	=29
2C	.	2r	.	2r	.	2r	.	2r	.	8r	.
.	.	.	.	.	.	.	.	.	.	8g	In
.	.	.	.	.	.	.	.	.	.	8g	ques-
.	.	.	.	.	.	.	.	.	.	8g	-to
4C	.	8r	.	8r	.	8r	.	8r	.	2g	mio
.	.	8C	In	8G	In	8c	In	8e	In	.	.
4C	.	8C	que-	8G	ques-	8c	ques-	8e	ques-	.	.
.	.	8C	-sto	8G	-to	8c	-to	8e	-to	.	.
=30	=30	=30	=30	=30	=30	=30	=30	=30	=30	=30	=30
2C	.	2C	mio	2G	mio	2c	mio	2e	mio	8r	.
.	.	.	.	.	.	.	.	.	.	8e	che
.	.	.	.	.	.	.	.	.	.	8e	vi
.	.	.	.	.	.	.	.	.	.	8e	sta
4E	#	8r	.	8r	.	8r	.	2r	.	[2e	nu-
.	.	8E	che	8G#X	che	8B	che	.	.	.	.
4E	.	8E	vi	8G#i	vi	8B	vi	.	.	.	.
.	.	8E	sta	8G#X	sta	8B	sta	.	.	.	.
=31	=31	=31	=31	=31	=31	=31	=31	=31	=31	=31	=31
4E	#	4E	nu-	4G#X	nu-	4B	nu-	1r	.	4e]	.
4F	.	4F	-do a-	4A	-do a-	4A	-do a-	.	.	4d	-do a-
2E	#	2E	-van-	2G#X	-van-	2B	-van-	.	.	2e	-van-
=32	=32	=32	=32	=32	=32	=32	=32	=32	=32	=32	=32
2E	.	2E	-te	2G#i	-te	2B	-te	4r	.	2e	-te
.	.	.	.	.	.	.	.	4B	I	.	.
4E	.	4E	I	2r	.	2r	.	8e	pre-	2r	.
.	.	.	.	.	.	.	.	8e	-gi	.	.
4A	#	8A	pre-	.	.	.	.	8c#i	vos-	.	.
.	.	8A	-gi	.	.	.	.	8c#X	-tri e	.	.
=33	=33	=33	=33	=33	=33	=33	=33	=33	=33	=33	=33
4F#X	.	8F#i	vos-	1r	.	4r	.	8d	le	2r	.
.	.	8F#X	-tri e	.	.	.	.	8d	vit-	.	.
4G	.	8G	le	.	.	4d	I	8B	-to-	.	.
.	.	8G	vit-	.	.	.	.	8B	-rie	.	.
4E	.	8E	-to-	.	.	8e	pre-	4G	sie-	4r	.
.	.	8E	-rie	.	.	8e	-gi	.	.	.	.
4A	#	4A	sie-	.	.	8c#i	vos-	4A	-no,	4e	I
.	.	.	.	.	.	8c#X	-tri e	.	.	.	.
=34	=34	=34	=34	=34	=34	=34	=34	=34	=34	=34	=34
4D	.	4D	-no,	4A	I	8d	le	4r	.	8a	pre-
.	.	.	.	.	.	8d	vit-	.	.	8a	-gi
4G	.	4G	e	8B	pre-	4B	-to-	4d	e	8g	vos-
.	.	.	.	8B	-gi	.	.	.	.	8g	-tri e
4E	6	8E	le	8G	vos-	4c	-rie	8e	le	8g	le
.	.	8E	vit-	8G	-tri e	.	.	8g	vit-	8e	vit-
4F	6	8F	-to-	8A	le	[4d	sie-	[4f	-to-	8a	-to-
.	.	8F	-rie	8A	vit-	.	.	.	.	8a	-rie
=35	=35	=35	=35	=35	=35	=35	=35	=35	=35	=35	=35
1G	.	1G	sie-	4B	-to-	4d]	.	4f]	.	1g	sie-
.	.	.	.	4c	-rie	2c	.	4e	-rie	.	.
.	.	.	.	2d	sie-	.	.	2d	sie-	.	.
.	.	.	.	.	.	4B	.	.	.	.	.
=36	=36	=36	=36	=36	=36	=36	=36	=36	=36	=36	=36
1C	.	1C	-no	1c	-no	2c	-no	2e	-no	2g	-no
.	.	.	.	.	.	4r	.	4r	.	4.g	Te-
.	.	.	.	.	.	[4c	Te-	[4e	Te-	.	.
.	.	.	.	.	.	.	.	.	.	8f	-ne-
=37	=37	=37	=37	=37	=37	=37	=37	=37	=37	=37	=37
4C	.	1r	.	1r	.	8c]	.	8e]	.	4e	-ro ai
.	.	.	.	.	.	8B	-ne-	8d	-ne-	.	.
4AA	.	.	.	.	.	4A	-ro ai	4c	-ro ai	2a	col-
2D	.	.	.	.	.	2d	col-	2f	col-	.	.
.	.	.	.	.	.	.	.	.	.	4f	-pi è
=38	=38	=38	=38	=38	=38	=38	=38	=38	=38	=38	=38
4BB	.	1r	.	1r	.	4B	-pi è	4d	-pi è	2.g	ques-
2C	.	.	.	.	.	2c	ques-	2e	ques-	.	.
4AA	.	.	.	.	.	4A	-to	4c	-to	4f#X	-to
=39	=39	=39	=39	=39	=39	=39	=39	=39	=39	=39	=39
2GG	.	2r	.	2r	.	1G	mio	1d	mio	1g	mio
2G	.	2G	ben	2B	ben	.	.	.	.	.	.
=40	=40	=40	=40	=40	=40	=40	=40	=40	=40	=40	=40
4E	.	4E	fal-	4G	fal-	2B	ben	1r	.	2g	ben
4F	.	4F	-lo A-	4A	-lo A-	.	.	.	.	.	.
2G	.	2G	-mor	2B	-mor,	4B	fal-	.	.	4g	fal-
.	.	.	.	.	.	4c	-lo A-	.	.	4a	-lo A-
=41	=41	=41	=41	=41	=41	=41	=41	=41	=41	=41	=41
4G	.	8r	.	2B	<ben	2d	-mor	1r	.	8b	-mor
.	.	8G	che	.	.	.	.	.	.	8b	che
8GL	.	8G	mai	.	.	.	.	.	.	8b	mai
8GJ	.	8G	non	.	.	.	.	.	.	8b	non
8EL	.	8E	vi	4B	fal-	2r	.	.	.	8g	vi
8GJ	.	8G	sa-	.	.	.	.	.	.	8b	sa-
8FL	.	8F	-et-	4c	-lo A-	.	.	.	.	8a	-et-
8EJ	.	8E	-ta in	.	.	.	.	.	.	8g	-ta in
=42	=42	=42	=42	=42	=42	=42	=42	=42	=42	=42	=42
2D	#	2D	fal-	1d	-mor>	2r	.	2r	.	2f#X	fal-
4GG	.	4GG	-lo,	.	.	8r	.	8r	.	2g	-lo,
.	.	.	.	.	.	8B	che	8d	che	.	.
4BB	.	4BB	ben	.	.	8B	mai	8d	mai	.	.
.	.	.	.	.	.	8B	non	8d	non	.	.
=43	=43	=43	=43	=43	=43	=43	=43	=43	=43	=43	=43
4BB	.	4BB	fal-	1r	.	8G	vi	8B	vi	1r	.
.	.	.	.	.	.	8B	sa-	8d	sa-	.	.
4C	.	4C	-lo A-	.	.	8A	-et-	8c	-et-	.	.
.	.	.	.	.	.	8G	-ta in	8B	-ta in	.	.
2D	#	2D	-mor	.	.	2F#X	fal-	2A	fal-	.	.
=44	=44	=44	=44	=44	=44	=44	=44	=44	=44	=44	=44
4G	.	8r	.	8r	.	4G	-lo,	2B	-lo,	2b	ben
.	.	8G	che	8B	che	.	.	.	.	.	.
8GL	.	8G	mai	8B	mai	2G	ben	.	.	.	.
8GJ	.	8G	non	8B	non	.	.	.	.	.	.
8EL	.	8E	vi	8G	vi	.	.	2r	.	4b	fal-
8GJ	.	8G	sa-	8B	sa-	.	.	.	.	.	.
8FL	.	8F	-et-	8A	-et-	[4A	fal-	.	.	4cc	-lo A-
8EJ	.	8E	-ta in	8G	-ta in	.	.	.	.	.	.
=45	=45	=45	=45	=45	=45	=45	=45	=45	=45	=45	=45
2D	#	2D	fal-	2F#X	fal-	4A]	.	8r	.	2dd	-mor
.	.	.	.	.	.	.	.	8d	che	.	.
.	.	.	.	.	.	4A	-lo A-	8d	mai	.	.
.	.	.	.	.	.	.	.	8d	non	.	.
2GG	.	4GG	-lo,	2G	-lo,	8B	-mor	8B	vi	8r	.
.	.	.	.	.	.	8B	che	8c	sa-	8dd	che
.	.	4GG	ben	.	.	8B	mai	[4d	-et-	8dd	mai
.	.	.	.	.	.	8B	non	.	.	8dd	non
=46	=46	=46	=46	=46	=46	=46	=46	=46	=46	=46	=46
4BB	.	4BB	fal-	2r	.	8G	vi	4d]	.	8b	vi
.	.	.	.	.	.	8B	sa-	.	.	8dd	sa-
4C	.	4C	-lo A-	.	.	8A	-et-	4e	-ta,	8cc	-et-
.	.	.	.	.	.	8G	-ta in	.	.	8b	-ta in
2D	.	2D	-mor,	8r	.	2F#X	fal-	4r	.	2a	fal-
.	.	.	.	8d	che	.	.	.	.	.	.
.	.	.	.	8d	mai	.	.	4d	ben	.	.
.	.	.	.	8d	non	.	.	.	.	.	.
=47	=47	=47	=47	=47	=47	=47	=47	=47	=47	=47	=47
2G	.	2r	.	8B	vi	2G	-lo,	4d	fal-	2g	-lo,
.	.	.	.	8A	sa-	.	.	.	.	.	.
.	.	.	.	2B	-et-	.	.	4d	-lo A-	.	.
2E	.	2E	<ben	.	.	8r	.	8e	-mor	4r	.
.	.	.	.	.	.	8e	<che	8g	che	.	.
.	.	.	.	4B	-ta,	8e	mai	8g	mai	4g	ben
.	.	.	.	.	.	8e	non	8g	non	.	.
=48	=48	=48	=48	=48	=48	=48	=48	=48	=48	=48	=48
4E	.	4E	fal-	1r	.	8c	vi	8e	vi	4g	fal-
.	.	.	.	.	.	8e	sa-	8g	sa-	.	.
4F	.	4F	-lo A-	.	.	8d	-et-	8f	-et-	4a	-lo A-
.	.	.	.	.	.	8c	-ta in	8e	-ta in	.	.
2G	.	2G	-mor>	.	.	4.B	fal-	4d	fal-	2b	-mor,
.	.	.	.	.	.	.	.	4d	-lo,	.	.
.	.	.	.	.	.	8A	.	.	.	.	.
=49	=49	=49	=49	=49	=49	=49	=49	=49	=49	=49	=49
4G	.	8r	.	8r	.	4G	.	2d	ben	4r	.
.	.	8G	che	8B	<che	.	.	.	.	.	.
4G	.	8G	mai	8B	mai	4B	-lo>,	.	.	4b	<ben
.	.	8G	non	8B	non	.	.	.	.	.	.
8EL	.	8E	vi	8G	vi	2r	.	4e	fal-	4b	fal-
8GJ	.	8G	sa-	8B	sa-	.	.	.	.	.	.
8FL	.	8F	-et-	8A	-et-	.	.	4A	-lo A-	4cc	-lo A-
8EJ	.	8E	-ta in	8G	-ta> in	.	.	.	.	.	.
=50	=50	=50	=50	=50	=50	=50	=50	=50	=50	=50	=50
[1D	.	[1D	fal-	4F#i	fal-	8r	.	4.A	-mor	2dd	-mor>
.	.	.	.	.	.	8d	<che	.	.	.	.
.	.	.	.	4F#X	-lo,	8d	mai	.	.	.	.
.	.	.	.	.	.	8d	non	8A	che	.	.
.	.	.	.	8r	.	8A	vi	8f	mai	8r	.
.	.	.	.	8D	non	8d	sa-	8f	non	8dd	che
.	.	.	.	8D	vi	[4B	-et-	8f	vi	8dd	mai
.	.	.	.	8E	sa-	.	.	8e	sa-	8dd	non
=51	=51	=51	=51	=51	=51	=51	=51	=51	=51	=51	=51
1D]	.	1D]	.	4F#X	-et-	8B]L	.	4d	-et-	8b	vi
.	.	.	.	.	.	8AJ	.	.	.	8dd	sa-
.	.	.	.	4G	-ta in	2G	-ta in	4d	-ta in	8cc	-et-
.	.	.	.	.	.	.	.	.	.	8b	-ta in
.	.	.	.	2A	fal-	.	.	2d	fal-	2a	fal-
.	.	.	.	.	.	4F#X	fal-	.	.	.	.
=52	=52	=52	=52	=52	=52	=52	=52	=52	=52	=52	=52
1GGl	.	1GGl	-lo.	1Gl	-lo.	1Gl	-lo>.	1dl	-lo.	1bl	-lo.
==	==	==	==	==	==	==	==	==	==	==	==
*-	*-	*-	*-	*-	*-	*-	*-	*-	*-	*-	*-
!!!system-decoration: [(s1)(s2)(s3)(s4)(s5)]s6
!!!RDF**kern: > = above
!!!RDF**kern: i = editorial accidental
!!!RDF**kern: l = terminal long
!!!ENC: Emiliano Ricciardi
!!!END: 2019/08/08
!!!EED: Mazzetti, Marcello; Ticli, Livio
!!!EEV: 2019/08/08
!!!YEC: Copyright 2018 Emiliano Ricciardi, All Rights Reserved
!!!ONB: Translated from MusicXML on 2019/08/08 and edited by Craig Stuart Sapp
!!@@BEGIN:	VERSEDATA
!!@CATALOGNUM:	Tsg20124
!!@LAST_MODIFIED: 2020/07/12
!!@TITLE:		Ah, ma non fia che fra tant'armi e tante
!!@CANTO:		XX
!!@OTTAVA:	124
!!@MANUSRC:	G-Al, G-Au, G-Br<sub>2</sub>, G-Es<sub>1</sub>, G-Es<sub>2</sub>, G-Es<sub>3</sub>, G-F, G-Fr, G-Fr<sub>1</sub>, G-Fr<sub>2</sub>, G-Mc<sub>1</sub>, G-Mr, G-Mt, G-N, G-Ol
!!@PRINTSRC:	G-1580CM, G-1581B, G-1581CV, G-1581R, G-1581MR, G-1581P, G-1581V, G-1581V<sub>bis</sub>, G-1582C, G-1582M, G-1582MC, G-1582P, G-1582SC, G-1582SC<sub>bis</sub>, G-1583S, G-1584O, G-1584S, G-1585C, G-1585S, G-1588S, G-1589S, G-1590B, G-1590S, G-1592S, G-1593S, G-1594C, G-1595C, G-1597C, G-1598C, G-1599C, G-1600C, G-1600S, G-1601C, G-1601R, G-1602C, G-1604C, G-1604Cl, G-1604F, G-1604P, G-1606B, G-1606B<sub>bis</sub>, G-1606L, G-1607ZR, G-1608DP, G-1609GC, G-1610M, G-1611S, G-1611V, G-1612P, G-1613M, G-1613P, G-1613V, G-1615P, G-1616M, G-1617P, G-1619B, G-1619V, G-1620M, G-1620S, G-1621R, G-1624I, G-1624MT, G-1625C, G-1625S, G-1625SS, G-1626C, G-1626Co, G-1627M, G-1628T, G-1628Tu, G-1630L, G-1630T, G-1632FT, G-1639CF, G-1642M, G-1643I, G-1644P, G-1644S
!!@@BEGIN:	VERSES
!!@ABOUTIT:
!!@ABOUTEN:
!!@EDITOR:	Angelo Solerti
!!@EDITION_TITLE: Gerusalemme liberata. Poema eroico di Torquato Tasso. Edizione critica sui manoscritti e le prime stampe.
!!@EDITION_LOC:	Florence
!!@EDITION_PUB:	G. Barbera
!!@EDITION_DATE:  1895
!!@EDITION_VOL:
!!@EDITION_PAGE:
!!@TRANSLATOR:	Emiliano Ricciardi and Amyrose McCue Gill
!!@VERSE:
!!	Ah, ma non fia che fra tant’armi e tante
!!	Una di sangue oggi si bagni almeno?
!!	S’ogni altro petto a voi par di diamante,
!!	Osarete piagar femminil seno;
!!	In questo mio, che vi sta nudo avante,
!!	I pregj vostri e le vittorie sieno.
!!	Tenero ai colpi è questo mio; ben sallo
!!	Amor, che mai non vi saetta in fallo.
!!@TVERSE:
!!	Ah, but could it not be that among so many, many arms
!!	One in blood today could be bathed at least?
!!	If every other chest to you seems of diamond,
!!	You dare to wound a female breast;
!!	In this, mine—which goes bare before you—
!!	Be your prayers and victories.
!!	Tender to blows is this, mine; well knows it
!!	Love, which never pierces you with arrows falsely.
!!@@END:		VERSES
!!@OTHER_CRIT_ED:  Torquato Tasso, <i>Gerusalemme liberata</i>, ed. Lanfranco Caretti, 2 vols. (Bari: Laterza, 1967).
!!@ATTRIBUTION_ABOUT:
!!@DATING:	mid-1560s through 1570s
!!@DEDICATEE:	Duke Alfonso II d'Este
!!@COMMENTARY:
!!@@END:		VERSEDATA
!!@@BEGIN: SETTING
!!@CATALOGNUM:	Tsg20124a
!!@CANTO:		XX
!!@OTTAVA:	124
!!@TITLE:	Ah, ma non fia che fra tant'armi e tante
!!@SETTINGTITLE: Ah, ma non fia che fra tant'arme e tante
!!@COMPOSER:	Eredi, Francesco
!!@PARTS:		2 of 10
!!@PRINCEPSTITLE:	L'Armida del Tasso posta in musica a cinque voci, col suo basso per suonare
!!@PRINCEPSLOC:	Venice
!!@NORMLOC:	Venice
!!@NORMPUB:	Alessandro Vincenti
!!@NORMPUBSHORT:	A. Vincenti
!!@PRINCEPSPUB:	Alessandro Vincenti
!!@PRINCEPSYEAR:	1629
!!@PRINCEPSRISM:	E 741
!!@OVOICES:	5+bc
!!@EXTANTVOICES:	5+bc
!!@OMENSURATION:	C
!!@OCLEFS:	C1,C3,C4,C4,F4,F4
!!@OTIME:		
!!@OKEYSIG:	-
!!@FINAL:		(G)G
!!@TIMPEDITOR:	Mazzetti, Marcello; Ticli, Livio
!!@REPRINTS:	
!!@@END: SETTING
